img/icons/icon.svg

<svg width="32" height="32" viewBox="0 0 32 32" fill="none" xmlns="http://www.w3.org/2000/svg">
<rect width="32" height="32" rx="8" fill="#EEEEEE"/>
<path d="M14.9522 5.37318C16.1887 7.8055 12.3828 9.45753 10.6368 7.63305C9.90921 6.85577 10.2438 5.35369 12.0086 4.53742C12.8918 4.11954 14.1284 3.73965 14.9522 5.37318Z" fill="black"/>
<path d="M22.7363 4.30299C24.0816 6.95074 19.9364 8.74973 18.0363 6.76329C17.2442 5.91603 17.608 4.28249 19.5315 3.39324C20.4922 2.93787 21.838 2.52549 22.7363 4.30299Z" fill="black"/>
<path fill-rule="evenodd" clip-rule="evenodd" d="M14.7758 26.9371C17.5914 27.2465 20.5219 26.4032 21.6539 24.6617C22.6109 23.2006 21.8277 22.6948 20.7249 23.8744C18.4038 26.4317 15.9952 25.2795 14.9798 22.6948L15.2411 22.6108C20.1446 20.7283 23.2204 15.6158 21.2765 12.7221C18.6062 8.73273 10.2496 12.3002 9.20459 17.8911C8.247 23.0602 10.7425 26.5157 14.7758 26.9371ZM17.7943 13.0035C18.6358 14.2957 17.6204 18.8749 14.5733 20.9538C14.4864 20.307 14.4864 19.6052 14.5442 18.8749C15.1536 13.7618 16.895 11.6554 17.7943 13.0035Z" fill="black"/>
</svg>

<svg width="32" height="32" fill="none" xmlns="http://www.w3.org/2000/svg"><rect width="32" height="32" rx="8" fill="#EEE"/><path d="M15 5.4c1.2 2.4-2.6 4-4.4 2.2-.7-.7-.4-2.2 1.4-3 .9-.5 2.1-.9 3 .8zM22.7 4.3C24.1 7 20 8.7 18 6.8c-.8-.9-.4-2.5 1.5-3.4 1-.5 2.3-.9 3.2.9z" fill="#000"/><path fill-rule="evenodd" clip-rule="evenodd" d="M14.8 27c2.8.2 5.7-.6 6.9-2.3 1-1.5.1-2-1-.8-2.3 2.5-4.7 1.4-5.7-1.2h.2c5-2 8-7 6-10-2.6-4-11-.4-12 5.2-1 5.2 1.5 8.6 5.6 9zm3-14c.8 1.3-.2 5.9-3.2 8v-2.1c.6-5.1 2.3-7.2 3.2-5.9z" fill="#000"/></svg>
